X:1
T: Tulip Tree
R: jig
C: Rick Gagne
N: 1987 on whistle
N: Alternate key: A
M: 6/8
K: G
D | "G"G2G "C"e2e | "G"dBG "Em"dBG | "D"A2A cBA |"Em"BGE "C"e2d |
"G"g2g "C"ege | "G"dBG "Em"dBG | "D"A2A cBA | "G"GBd "C"e2 :|
d | "G"g2g gdB | GBd edB | GBd gdB | "Em"GBd "C"e2d |
"G"gag gdB | GBd edB | GBd gdB | "Em"GBd "C"e2 :|
